SVG_Azure_Grouped/Data/Azure Database for MySQL.svg

<?xml version="1.0" encoding="UTF-8" standalone="no"?>
<!-- Generated by Microsoft Visio, SVG Export Azure Database for MySQL.svg Page-1 -->

<svg
   xmlns:dc="http://purl.org/dc/elements/1.1/"
   xmlns:cc="http://creativecommons.org/ns#"
   xmlns:rdf="http://www.w3.org/1999/02/22-rdf-syntax-ns#"
   xmlns:svg="http://www.w3.org/2000/svg"
   xmlns="http://www.w3.org/2000/svg"
   xmlns:sodipodi="http://sodipodi.sourceforge.net/DTD/sodipodi-0.dtd"
   xmlns:inkscape="http://www.inkscape.org/namespaces/inkscape"
   width="0.59055233in"
   height="0.78748322in"
   viewBox="0 0 42.519769 56.699102"
   xml:space="preserve"
   class="st6"
   version="1.1"
   id="svg55"
   sodipodi:docname="Azure Database for MySQL.svg"
   style="font-size:12px;overflow:visible;color-interpolation-filters:sRGB;fill:none;fill-rule:evenodd;stroke-linecap:square;stroke-miterlimit:3"
   inkscape:version="0.92.5 (2060ec1f9f, 2020-04-08)"><metadata
   id="metadata59"><rdf:RDF><cc:Work
       rdf:about=""><dc:format>image/svg+xml</dc:format><dc:type
         rdf:resource="http://purl.org/dc/dcmitype/StillImage" /></cc:Work></rdf:RDF></metadata><sodipodi:namedview
   pagecolor="#ffffff"
   bordercolor="#666666"
   borderopacity="1"
   objecttolerance="10"
   gridtolerance="10"
   guidetolerance="10"
   inkscape:pageopacity="0"
   inkscape:pageshadow="2"
   inkscape:window-width="640"
   inkscape:window-height="480"
   id="namedview57"
   showgrid="false"
   inkscape:zoom="1.4193119"
   inkscape:cx="28.346509"
   inkscape:cy="37.786193"
   inkscape:window-x="0"
   inkscape:window-y="0"
   inkscape:window-maximized="0"
   inkscape:current-layer="svg55" />
	<style
   type="text/css"
   id="style2">
	<![CDATA[
		.st1 {fill:url(#grad0-6);stroke:none;stroke-linecap:butt;stroke-width:34}
		.st2 {fill:#e8e8e8;stroke:none;stroke-linecap:butt;stroke-width:34}
		.st3 {fill:#50e6ff;stroke:none;stroke-linecap:butt;stroke-width:34}
		.st4 {fill:#198ab3;stroke:none;stroke-linecap:butt;stroke-width:34}
		.st5 {fill:#f2f2f2;stroke:none;stroke-linecap:butt;stroke-width:34}
		.st6 {fill:none;fill-rule:evenodd;font-size:12px;overflow:visible;stroke-linecap:square;stroke-miterlimit:3}
	]]>
	</style>

	<defs
   id="Patterns_And_Gradients">
		<linearGradient
   id="grad0-6"
   x1="0"
   y1="70.5925"
   x2="45.626519"
   y2="70.5925"
   gradientTransform="scale(0.93191419,1.0730602)"
   gradientUnits="userSpaceOnUse">
			<stop
   offset="0"
   stop-color="#005ba1"
   stop-opacity="1"
   id="stop4" />
			<stop
   offset="0.07"
   stop-color="#0060a9"
   stop-opacity="1"
   id="stop6" />
			<stop
   offset="0.36"
   stop-color="#0071c8"
   stop-opacity="1"
   id="stop8" />
			<stop
   offset="0.52"
   stop-color="#0078d4"
   stop-opacity="1"
   id="stop10" />
			<stop
   offset="0.64"
   stop-color="#0074cd"
   stop-opacity="1"
   id="stop12" />
			<stop
   offset="0.82"
   stop-color="#006abb"
   stop-opacity="1"
   id="stop14" />
			<stop
   offset="1"
   stop-color="#005ba1"
   stop-opacity="1"
   id="stop16" />
		</linearGradient>
	</defs>
	<g
   id="g53"
   transform="translate(-34.000303,-33.9952)">
		<title
   id="title20">Page-1</title>
		<g
   id="group19683-1"
   transform="translate(34,-34.0157)">
			<title
   id="title22">Azure Database for MySQL.19683</title>
			<g
   id="group19684-2">
				<title
   id="title24">Icon-databases-122</title>
				<g
   id="shape19685-3">
					<title
   id="title26">Sheet.19685</title>
					<path
   d="M 21.26,83.49 C 9.52,83.49 0,80.15 0,75.75 v 41.22 c 0,4.24 9.35,7.67 20.96,7.74 h 0.3 c 11.74,0 21.26,-3.34 21.26,-7.74 V 75.75 c 0,4.3 -9.52,7.74 -21.26,7.74 z"
   class="st1"
   id="path28"
   inkscape:connector-curvature="0"
   style="fill:url(#grad0-6);stroke:none;stroke-width:34;stroke-linecap:butt" />
				</g>
				<g
   id="shape19686-7"
   transform="translate(0,-41.2191)">
					<title
   id="title31">Sheet.19686</title>
					<path
   d="m 42.52,116.97 c 0,4.3 -9.52,7.74 -21.26,7.74 C 9.52,124.71 0,121.37 0,116.97 c 0,-4.4 9.52,-7.74 21.26,-7.74 11.74,0 21.26,3.34 21.26,7.74 z"
   class="st2"
   id="path33"
   inkscape:connector-curvature="0"
   style="fill:#e8e8e8;stroke:none;stroke-width:34;stroke-linecap:butt" />
				</g>
				<g
   id="shape19687-9"
   transform="translate(4.94184,-44.654)">
					<title
   id="title36">Sheet.19687</title>
					<path
   d="m 32.64,119.77 c 0,2.74 -7.33,4.94 -16.32,4.94 -8.99,0 -16.32,-2.2 -16.32,-4.94 0,-2.73 7.33,-4.9 16.32,-4.9 8.99,0 16.32,2.2 16.32,4.9 z"
   class="st3"
   id="path38"
   inkscape:connector-curvature="0"
   style="fill:#50e6ff;stroke:none;stroke-width:34;stroke-linecap:butt" />
				</g>
				<g
   id="shape19688-11"
   transform="translate(8.358,-44.654)">
					<title
   id="title41">Sheet.19688</title>
					<path
   d="m 12.9,121.01 a 38.3075,38.5178 -180 0 0 -12.9,1.9 37.8763,38.0843 -180 0 0 12.9,1.8 36.9808,37.1839 -180 0 0 12.9,-1.94 39.2694,39.4849 -180 0 0 -12.9,-1.76 z"
   class="st4"
   id="path43"
   inkscape:connector-curvature="0"
   style="fill:#198ab3;stroke:none;stroke-width:34;stroke-linecap:butt" />
				</g>
				<g
   id="shape19689-13"
   transform="translate(4.8755,-15.107)">
					<title
   id="title46">Sheet.19689</title>
					<path
   d="m 28.46,111.47 v 5.44 h -3.32 a 1.2935,1.3006 0 0 1 -0.96,-0.47 v -4.97 H 19.7 v 5.94 a 3.05133,3.06809 -180 0 0 3.32,2.96 h 4.94 l 0.86,-0.43 c 0,0 -0.36,1.37 -0.86,1.43 h -7.89 v 3.34 h 8.82 a 4.01317,4.0352 -180 0 0 4.08,-4.24 v -9 z m -10.32,0 v -1.63 a 2.32167,2.33441 -180 0 0 -1.59,-2.57 5.771,5.80269 -180 0 0 -1.66,-0.27 3.11767,3.13478 -180 0 0 -3.02,1.93 l -2.58,6.34 -3.32,-6.34 A 3.0845,3.10144 -180 0 0 3.12,107 4.776,4.80222 -180 0 0 1.43,107.3 C 0.27,107.67 0,108.43 0,109.74 v 11.03 h 3.88 v -7.43 l 2.09,5.23 a 3.582,3.60167 -180 0 0 3.32,2.2 c 1.46,0 2.05,-0.86 2.65,-2.2 l 2.22,-5.03 v 7.17 h 3.92 v -9.24 z"
   class="st5"
   id="path48"
   inkscape:connector-curvature="0"
   style="fill:#f2f2f2;stroke:none;stroke-width:34;stroke-linecap:butt" />
				</g>
			</g>
		</g>
	</g>
</svg>

<?xml version="1.0" encoding="UTF-8" standalone="no"?>
<!DOCTYPE svg PUBLIC "-//W3C//DTD SVG 1.1//EN" "http://www.w3.org/Graphics/SVG/1.1/DTD/svg11.dtd">
<!-- Generated by Microsoft Visio, SVG Export Azure Database for MySQL.svg Page-1 -->
<svg xmlns="http://www.w3.org/2000/svg" xmlns:xlink="http://www.w3.org/1999/xlink" xmlns:ev="http://www.w3.org/2001/xml-events"
		width="1.535in" height="1.73206in" viewBox="0 0 110.52 124.709" xml:space="preserve" color-interpolation-filters="sRGB"
		class="st6">
	<style type="text/css">
	<![CDATA[
		.st1 {fill:url(#grad0-6);stroke:none;stroke-linecap:butt;stroke-width:34}
		.st2 {fill:#e8e8e8;stroke:none;stroke-linecap:butt;stroke-width:34}
		.st3 {fill:#50e6ff;stroke:none;stroke-linecap:butt;stroke-width:34}
		.st4 {fill:#198ab3;stroke:none;stroke-linecap:butt;stroke-width:34}
		.st5 {fill:#f2f2f2;stroke:none;stroke-linecap:butt;stroke-width:34}
		.st6 {fill:none;fill-rule:evenodd;font-size:12px;overflow:visible;stroke-linecap:square;stroke-miterlimit:3}
	]]>
	</style>

	<defs id="Patterns_And_Gradients">
		<linearGradient id="grad0-6" x1="0" y1="0" x2="1" y2="0" gradientTransform="rotate(0 0.5 0.5)">
			<stop offset="0" stop-color="#005ba1" stop-opacity="1"/>
			<stop offset="0.07" stop-color="#0060a9" stop-opacity="1"/>
			<stop offset="0.36" stop-color="#0071c8" stop-opacity="1"/>
			<stop offset="0.52" stop-color="#0078d4" stop-opacity="1"/>
			<stop offset="0.64" stop-color="#0074cd" stop-opacity="1"/>
			<stop offset="0.82" stop-color="#006abb" stop-opacity="1"/>
			<stop offset="1" stop-color="#005ba1" stop-opacity="1"/>
		</linearGradient>
	</defs>
	<g>
		<title>Page-1</title>
		<g id="group19234-1" transform="translate(34,-34.0157)">
			<title>Azure Database for MySQL.19234</title>
			<g id="group19235-2">
				<title>Icon-databases-122</title>
				<g id="shape19236-3">
					<title>Sheet.19236</title>
					<path d="M21.26 83.49 C9.52 83.49 0 80.15 0 75.75 L0 116.97 C0 121.21 9.35 124.64 20.96 124.71 L21.26 124.71
								 C33 124.71 42.52 121.37 42.52 116.97 L42.52 75.75 C42.52 80.05 33 83.49 21.26 83.49 Z" class="st1"/>
				</g>
				<g id="shape19237-7" transform="translate(0,-41.2191)">
					<title>Sheet.19237</title>
					<path d="M42.52 116.97 C42.52 121.27 33 124.71 21.26 124.71 C9.52 124.71 0 121.37 0 116.97 C0 112.57 9.52 109.23
								 21.26 109.23 C33 109.23 42.52 112.57 42.52 116.97 Z" class="st2"/>
				</g>
				<g id="shape19238-9" transform="translate(4.94184,-44.654)">
					<title>Sheet.19238</title>
					<path d="M32.64 119.77 C32.64 122.51 25.31 124.71 16.32 124.71 C7.33 124.71 0 122.51 0 119.77 C0 117.04 7.33
								 114.87 16.32 114.87 C25.31 114.87 32.64 117.07 32.64 119.77 Z" class="st3"/>
				</g>
				<g id="shape19239-11" transform="translate(8.358,-44.654)">
					<title>Sheet.19239</title>
					<path d="M12.9 121.01 A38.3075 38.5178 -180 0 0 0 122.91 A37.8763 38.0843 -180 0 0 12.9 124.71 A36.9808 37.1839
								 -180 0 0 25.8 122.77 A39.2694 39.4849 -180 0 0 12.9 121.01 Z" class="st4"/>
				</g>
				<g id="shape19240-13" transform="translate(4.8755,-15.107)">
					<title>Sheet.19240</title>
					<path d="M28.46 111.47 L28.46 116.91 L25.14 116.91 A1.2935 1.3006 0 0 1 24.18 116.44 L24.18 111.47 L19.7 111.47
								 L19.7 117.41 A3.05133 3.06809 -180 0 0 23.02 120.37 L27.96 120.37 L28.82 119.94 C28.82 119.94 28.46
								 121.31 27.96 121.37 L20.07 121.37 L20.07 124.71 L28.89 124.71 A4.01317 4.0352 -180 0 0 32.97 120.47
								 L32.97 111.47 L28.46 111.47 ZM18.14 111.47 L18.14 109.84 A2.32167 2.33441 -180 0 0 16.55 107.27
								 A5.771 5.80269 -180 0 0 14.89 107 A3.11767 3.13478 -180 0 0 11.87 108.93 L9.29 115.27 L5.97 108.93
								 A3.0845 3.10144 -180 0 0 3.12 107 A4.776 4.80222 -180 0 0 1.43 107.3 C0.27 107.67 0 108.43 0 109.74
								 L0 120.77 L3.88 120.77 L3.88 113.34 L5.97 118.57 A3.582 3.60167 -180 0 0 9.29 120.77 C10.75 120.77
								 11.34 119.91 11.94 118.57 L14.16 113.54 L14.16 120.71 L18.08 120.71 L18.08 111.47 L18.14 111.47
								 Z" class="st5"/>
				</g>
			</g>
		</g>
	</g>
</svg>
